svgs/regular/arrow-trend-up.svg

<svg xmlns="http://www.w3.org/2000/svg" viewBox="0 0 576 512"><!--! Font Awesome Pro 6.0.0-alpha3 by @fontawesome - https://fontawesome.com License - https://fontawesome.com/license (Commercial License) --><path d="M576 120v176C576 309.3 565.3 320 552 320S528 309.3 528 296V177.9l-191 191C332.3 373.7 326.1 376 320 376s-12.28-2.344-16.97-7.031L192 257.9l-151 151C36.28 413.7 30.16 416 24 416C5.205 416 0 398.8 0 392c0-6.141 2.344-12.28 7.031-16.97l168-168C179.7 202.3 185.9 200 192 200s12.28 2.344 16.97 7.031L320 318.1L494.1 144H376C362.8 144 352 133.3 352 120S362.8 96 376 96h176C565.3 96 576 106.8 576 120z"/></svg>

<svg xmlns="http://www.w3.org/2000/svg" viewBox="0 0 576 512"><!--! Font Awesome Pro 6.4.2 by @fontawesome - https://fontawesome.com License - https://fontawesome.com/license (Commercial License) Copyright 2023 Fonticons, Inc. --><path d="M352 120c0-13.3 10.7-24 24-24H552c13.3 0 24 10.7 24 24V296c0 13.3-10.7 24-24 24s-24-10.7-24-24V177.9L337 369c-9.4 9.4-24.6 9.4-33.9 0l-111-111L41 409c-9.4 9.4-24.6 9.4-33.9 0s-9.4-24.6 0-33.9L175 207c9.4-9.4 24.6-9.4 33.9 0l111 111L494.1 144H376c-13.3 0-24-10.7-24-24z"/></svg>
